!!!OTL: 1056. Vierzeilen. / (Lanz- und Scherzreime.)
!!!ARE: Europa, Mitteleuropa, Deutschland, Hessen, Nassau; Rheinland
!!!SCT: E1056
!!!TXL: @@DE
!!!YEM: Copyright 1995, estate of Helmut Schaffrath.
**kern	**text
*ICvox	*
*M3/4	*
*k[f#]	*
*G:	*
!LO:TX:a:t=Mäßig langsam.	!
!LO:TX:a:t=Aus Heſſen-Naſſau und den Rheinlanden. 1850-1880.	!
{8bL	Drei
8ccJ	.
=1	=1
4dd	Wo-
4b	-chen
4dd	vor
=2	=2
4cc	O-
4a}	-ſtern,
{8aL	da
8bJ	.
=3	=3
4cc	geht
4ee	der
4cc	Schnee
=4	=4
4b	weg,
4r}	.
{8bL	da
8ccJ	.
=5	=5
4dd	hei-
4b	-rath
4dd	mein
=6	=6
4cc	Schätʒchen,
4a}	.
{8aL	da
8bJ	.
=7	=7
4cc	hab
4a	ich
4f#	'nen
=8	=8
4g	Dreck.
4r}	.
==	==
!!!AGN: Tanz - Lied, Scherz
!!!ONB: ESAC (Essen Associative Code) Database: ERK3
!!!AMT: simple triple
!!!AIN: vox
!!!EED: Helmut Schaffrath
!!!EEV: 1.0
!!!GTL: Tanz- und Spiellieder
!!!URL-scan: https://rosdok.uni-rostock.de/mcrviewer/recordIdentifier/rosdok_ppn745177662/iview2/phys_0797.iview2?x=-182.10329807093967&y=1198.3589297411963&scale=0.6479838709677419&rotation=0&layout=singlePageLayout
!!!ENC: Anna Maria Matuszewska
!!!EEV: 2024/12/23
*-	*-
